X:1
T: Aldridge's Hornpipe
C:Ryan's version
R:Reel
I:speed 232
K:A
M:4/4
L:1/8
|:E2|A2A2 Acec|defg aecA|BABc dcBA|GABA GEFG|
A2A2 Acec|BABc B2a2|gfeg fe^df|e2e2 e2:|
|:cd|ecec eaga|fedc dcBA|GABc defg|agaf e2E2|
AGAc BABd|cAce aecA|BABc dcBG|A2A2 A2:|
